X:1
T:Title
%%score [ ( 1 2 ) ( 3 4 ) ]
L:1/8
Q:1/4=120
M:4/4
K:F
V:1 treble nm="Midi_74" snm=" "
V:2 treble 
V:3 bass nm="Midi_74"
V:4 bass 
V:1
 A2"^Christina Rossetti" | (A3 B) c2 A2 |"^In the bleak mid-winter" (G2 G2) F2 z2 | (G3 A) G2 D2 | %4
w: |In the bleak mid-|win * ter|frost- y wind made|
w: ||||
w: E-|nough for him, whom|cher- u- bim|wor- ship night and|
w: ||||
w: |What * can I|give * him,|poor * as I|
"^Gustav Holst" G6 ||[M:4/4] A2 | (A3 B) c2 A2 | (G3 G) F2 F2 | (G2 A2) (G3 F) | F6 || F2 | %11
w: moan,||earth stood hard as|i * ron, *|wa- ter like a|stone:||
w: |||||||
w: day,|a|breast * ful of|milk * and a|man- ger- ful of|hay:|e-|
w: |||||||
w: am?||If I were a|shep * herd *|I would bring a|lamb;||
 (B3 A) B2 c2 | (d2 d2) A2 A2 | (c2 A2) (G2 F2) | E6 || A2 | (A3 B) c2 A2 | G4 F2 z2 | %18
w: snow had fall- en,|snow on snow, *|snow * on *|snow,||in the bleak mid-|win- ter,|
w: |||||||
w: nough for him, whom|an * gels *|fall * down be-|fore,|the|ox and ass and|ca- mel|
w: |||||||
w: if I were a|wise * man *|I would do my|part;|yet|what I can I|give him:|
 (G2 A2) (G3 F) | F6 |] %20
w: long * a *|go.|
w: ||
w: which * a *|dore.|
w: ||
w: give * my *|heart.|
V:2
 F2 | (F3 F) F2 C2 | (D2 D2) D2 z2 | (D3 D) D2 C2 | B,6 ||[M:4/4] C2 | (C3 F) F2 C2 | %7
w: |||||||
w: Our|God, heaven can- not|hold * him|nor * earth sus-|tain;||heaven and earth shall|
w: |||||||
w: |An- gels and arch-|an * gels|may have ga- thered|there,||cher- u- bim and|
 (D3 D) D2 D2 | (F2 F2) (E3 F) | F6 || F2 | (F3 F) F2 _E2 | (D2 D2) F2 F2 | (F2 E2) (D2 D2) | C6 || %15
w: ||||||||
w: flee a- way *|when he comes to|reign:||in the bleak mid-|win * ter a|sta- ble- place suf-|ficed|
w: ||||||||
w: ser- a- phim *|thronged * the *|air;|but|on * ly his|mo * ther *|in her mai- den|bliss|
 C2 | (C3 F) F2 C2 | D4 D2 z2 | F4 (E3 F) | F6 |] %20
w: |||||
w: the|Lord * God Al-|migh- ty,|Je- sus *|Christ.|
w: |||||
w: |wor- shipped the Be-|lov- èd|with a *|kiss.|
V:3
 C2 | (C3 C) C2 F,2 | (A,2 A,2) A,2 z2 | (G,3 D,) D,2 F,2 | (F,4 E,2) ||[M:4/4] F,2 | %6
 (F,3 C) C2 F,2 | (A,3 A,) A,2 A,2 | (D2 D2) (B,3 A,) | A,6 || A,2 | (B,3 C) B,2 A,2 | %12
 (B,2 B,2) A,2 A,2 | (F,2 C2) (B,2 A,2) | G,6 ||"^This edition  Andrew Sims 2014" F,2 | %16
 (F,3 C) C2 F,2 | A,4 A,2 z2 | D4 (B,3 A,) | A,6 |] %20
V:4
 F,2 | (F,3 G,) A,2 F,2 | (D,2 D,2) D,2 z2 | (B,,3 C,) B,,2 A,,2 | (G,,4 C,2) ||[M:4/4] F,2 | %6
 (F,3 G,) A,2 F,2 | (D,3 D,) D,2 D,2 | (B,,2 B,,2) (C,3 F,) | F,6 || F,2 | (D,3 F,) D,2 C,2 | %12
 (B,,2 B,,2) F,2 D,2 | (A,,2 A,,2) (B,,2 B,,2) | C,6 || F,2 | (F,3 G,) A,2 F,2 | D,4 D,2 z2 | %18
 B,,4 (C,3 F,) | F,6 |] %20

